X:238
T:Kadrilj #238
O:Husby, Aspö, Södermanland
R:Kadrilj
M:2/4
L:1/16
K: F
Q: 100
AB |: cdcB A2f2 | c2f2 A2f2 | dedc B2f2 | d2f2 B2b2 | gagf e2g2 | c2g2 e2g2 |
f2af e2ge | f8:|